packages/core/src/svgs/tokens/mono/CPH.svg

<svg width="24" height="24" viewBox="0 0 24 24" fill="none" xmlns="http://www.w3.org/2000/svg">
<path d="M8.4695 6.64995L9.78147 7.01473V11.8922C9.84036 12.4511 10.2875 13.7574 11.5701 14.534L14.7473 16.452V18.0406L9.96392 15.0988C9.48947 14.758 9.1053 14.3065 8.84486 13.7836C8.58443 13.2607 8.45557 12.6822 8.4695 12.0982V6.64407V6.64995ZM6.36906 6.04983L7.4634 6.36166C7.44433 6.53359 7.43451 6.70642 7.434 6.87941V13.2748C7.49282 13.8338 7.95175 15.1399 9.25787 15.9165L10.4051 16.5991L8.99314 17.305L7.62227 16.4813C7.1427 16.1439 6.75342 15.6937 6.48872 15.1706C6.22403 14.6474 6.09201 14.0671 6.1043 13.4807V7.35597C6.1043 7.03827 6.16903 6.56169 6.36906 6.04395V6.04983ZM14.7473 19.1995L11.4231 17.2051L10.011 17.9287L13.1763 19.8468C13.4294 19.9998 13.6765 20.0939 13.9059 20.1527L14.7532 19.2584V19.1995H14.7473Z" fill="white"/>
<path d="M3.17432 8.66804V14.6987C3.17458 15.4699 3.3727 16.2279 3.74972 16.9006C4.12674 17.5733 4.67007 18.1379 5.3277 18.5406L10.011 21.4235C10.5894 21.7846 11.2541 21.9834 11.9357 21.999C12.6172 22.0148 13.2904 21.8469 13.8849 21.5131C14.4793 21.1792 14.9728 20.6916 15.314 20.1012C15.6551 19.5111 15.8313 18.8399 15.824 18.1583V15.193L14.353 15.9755V18.3112C14.3597 18.7166 14.2568 19.1162 14.0554 19.4679C13.8539 19.8198 13.5612 20.1107 13.2082 20.31C12.8553 20.5094 12.4551 20.6099 12.0497 20.6008C11.6444 20.5917 11.249 20.4735 10.9053 20.2587L6.40439 17.4934C5.8667 17.1627 5.4227 16.6998 5.11474 16.1487C4.80678 15.5977 4.64513 14.9769 4.64521 14.3456V8.59155C4.64635 8.181 4.75733 7.77823 4.96666 7.42504C5.17599 7.07185 5.476 6.78111 5.8356 6.583C6.1952 6.38489 6.60127 6.28663 7.01167 6.2984C7.42205 6.31018 7.82181 6.43158 8.16946 6.64998L12.641 9.43873C13.176 9.78016 13.6144 10.2532 13.9141 10.8127C14.2139 11.372 14.3651 11.9991 14.353 12.6336V14.6928L15.824 13.8867V11.9452C15.824 10.639 15.2356 9.42707 14.1177 8.73865L8.8696 5.51446C8.30588 5.16504 7.65918 4.97226 6.99614 4.95596C6.33312 4.93965 5.67773 5.10043 5.0975 5.42171C4.51727 5.74298 4.03321 6.21315 3.69517 6.78376C3.35712 7.35438 3.17734 8.00481 3.17432 8.66804Z" fill="white"/>
<path d="M7.21021 4.04358V4.24361C7.81032 3.97885 8.75758 4.21419 9.15766 4.36717L15.0647 7.8973C15.562 8.1898 15.9915 8.58432 16.3251 9.05487C16.6587 9.52537 16.889 10.0613 17.0004 10.6273V17.2463C16.9856 18.2785 16.6619 19.2828 16.0709 20.1293L16.1296 20.2469C17.8947 19.3467 18.4772 17.5405 18.4713 16.7462V10.4155C18.463 9.79705 18.3019 9.19021 18.002 8.6492C17.7024 8.10818 17.2733 7.64977 16.7533 7.31482L11.011 3.82589C10.5617 3.54767 10.0385 3.41227 9.51067 3.43757C8.36926 3.43757 7.4985 3.84353 7.21021 4.04358Z" fill="white"/>
<path d="M9.71094 2.81366V2.61362C10.4092 2.20293 11.2073 1.99321 12.0173 2.00761C12.2526 1.97819 12.8881 2.01938 13.5177 2.39593L16.0299 3.92565L14.5708 4.67876C13.6017 4.09868 12.6329 3.51818 11.6643 2.93721C11.2642 2.78425 10.3111 2.54891 9.71094 2.81366ZM15.624 5.3083L17.5655 6.46735C18.0494 6.75906 18.4614 7.15591 18.7709 7.62849C19.0806 8.10106 19.2798 8.63725 19.3541 9.19732V15.8164C19.3541 17.1872 18.8658 18.311 18.5716 18.6993L18.6305 18.817C20.4014 17.9168 20.8309 16.1105 20.825 15.3163V8.98552C20.837 8.37957 20.7002 7.77993 20.4262 7.23929C20.1523 6.69866 19.7498 6.23356 19.254 5.88489L17.0948 4.57285L15.624 5.3083Z" fill="white"/>
</svg>

<svg xmlns="http://www.w3.org/2000/svg" width="24" height="24" fill="none" viewBox="0 0 24 24">
    <path fill="#fff" d="m8.47 6.65 1.311.365v4.877c.06.56.506 1.865 1.79 2.642l3.176 1.918v1.589l-4.783-2.942a3.59 3.59 0 0 1-1.495-3V6.643zm-2.1-.6 1.093.312q-.028.258-.029.517v6.396c.059.559.518 1.865 1.824 2.641l1.147.683-1.412.706-1.37-.824a3.58 3.58 0 0 1-1.519-3V7.356c0-.318.065-.794.265-1.312zm8.377 13.15-3.324-1.995-1.412.724 3.165 1.918c.253.153.5.247.73.306l.847-.895V19.2z"/>
    <path fill="#fff" d="M3.174 8.668v6.03a4.5 4.5 0 0 0 2.154 3.843l4.683 2.883a3.8 3.8 0 0 0 5.303-1.323c.341-.59.517-1.261.51-1.943v-2.965l-1.471.783v2.335a2.253 2.253 0 0 1-3.448 1.948l-4.5-2.766a3.7 3.7 0 0 1-1.76-3.147V8.592A2.3 2.3 0 0 1 8.17 6.65l4.472 2.789a3.7 3.7 0 0 1 1.712 3.195v2.059l1.471-.806v-1.942c0-1.306-.588-2.518-1.706-3.206L8.87 5.514a3.73 3.73 0 0 0-5.696 3.154"/>
    <path fill="#fff" d="M7.21 4.044v.2c.6-.265 1.548-.03 1.948.123l5.907 3.53A4.08 4.08 0 0 1 17 10.627v6.62a5.17 5.17 0 0 1-.93 2.882l.06.118c1.765-.9 2.347-2.706 2.341-3.5v-6.331a3.75 3.75 0 0 0-1.718-3.101l-5.742-3.49a2.6 2.6 0 0 0-1.5-.387c-1.142 0-2.012.406-2.3.606"/>
    <path fill="#fff" d="M9.71 2.814v-.2a4.4 4.4 0 0 1 2.307-.606c.236-.03.871.011 1.5.388l2.513 1.53-1.46.753-2.906-1.742c-.4-.153-1.353-.388-1.953-.123m5.914 2.494 1.941 1.16a3.76 3.76 0 0 1 1.79 2.73v6.618c0 1.371-.49 2.495-.783 2.883l.059.118c1.77-.9 2.2-2.707 2.194-3.5V8.985a3.7 3.7 0 0 0-1.571-3.101l-2.16-1.312z"/>
</svg>
